!!!OTL: 242. Zhok
!!!Genre:	Zhok
!!!Mode:	Freygish
!!!Listening/dance:	dance
!!!One_Mode:	no
**kern
*thru
*I"P1
*clefG2
*k[b-e-a-]
*M3/8
*>A
*G:frey
!LO:TX:a:i:t=G-freygish
8g
=1
16bnLL
16b
16b
16bJJ
24ccLL
24b
24a-JJ
=2
8gL
(16bnL
16g)
(16b
16gJJ)
=3
16bnLL
16b
16b
16bJJ
24ccLL
24b
24a-JJ
=4
8g
(8qff#X/
8gg)
(8qff#/
8ggJ)
=5
16bnLL
16b
16b
16bJJ
24ccLL
24b
24a-JJ
=6
8gL
16bnL
16g
16b
16gJJ
=7
16bnLL
16b
16b
16bJJ
24ccLL
24b
24a-JJ
*>A1
=8
4g
*>A
!LO:TX:a:i:t=G-freygish
8g
=1
16bnLL
16b
16b
16bJJ
24ccLL
24b
24a-JJ
=2
8gL
(16bnL
16g)
(16b
16gJJ)
=3
16bnLL
16b
16b
16bJJ
24ccLL
24b
24a-JJ
=4
8g
(8qff#X/
8gg)
(8qff#/
8ggJ)
=5
16bnLL
16b
16b
16bJJ
24ccLL
24b
24a-JJ
=6
8gL
16bnL
16g
16b
16gJJ
=7
16bnLL
16b
16b
16bJJ
24ccLL
24b
24a-JJ
*>A2
=9:|!
4g
8g
*>B
=10!|:
!!!End-Modulation
!!!Begin-Modulation
*G:frey
!LO:TX:a:i:t=G-freygish
4ffn
8ee-
=21
4dd
8cc
=22
16bnLL
16cc
16dd
16cc
16b
16a-JJ
=23
4g
8f
=24
(16fLL
16c)
(16c
16f)
(16f
16gJJ)
=25
8a-L
(16a-L
16cc)
(16bn
16a-JJ)
=26
4.g
=27
4gg
8gg
=28
(16ffLL
16gg)
16ff
16ee-
16dd
16ccJJ
=29
(16ddLL
16ee-)
16dd
16cc
16bn
16a-JJ
=30
(16ddLL
16ee-)
16dd
16cc
16bn
16a-JJ
=31
4g
8f
=32
(16fLL
16c)
(16c
16f)
(16f
16gJJ)
=33
8a-L
(16a-L
16cc)
16bn
16a-JJ
=34
4.g
*>C1
=35
4gg
8gg
*>C
!LO:TX:a:i:t=G-freygish
4ffn
8ee-
=21
4dd
8cc
=22
16bnLL
16cc
16dd
16cc
16b
16a-JJ
=23
4g
8f
=24
(16fLL
16c)
(16c
16f)
(16f
16gJJ)
=25
8a-L
(16a-L
16cc)
(16bn
16a-JJ)
=26
4.g
=27
4gg
8gg
=28
(16ffLL
16gg)
16ff
16ee-
16dd
16ccJJ
=29
(16ddLL
16ee-)
16dd
16cc
16bn
16a-JJ
=30
(16ddLL
16ee-)
16dd
16cc
16bn
16a-JJ
=31
4g
8f
=32
(16fLL
16c)
(16c
16f)
(16f
16gJJ)
=33
8a-L
(16a-L
16cc)
16bn
16a-JJ
=34
4.g
*>C2
=36:|!
8G 8d 8bn 8gg
8r
8r
==
*-
